X:13040
T:Mona's Delight
R:Reel
C:Trad.
O:Isle of Man
Z:Paul Hardy's Session Tunebook 2015 (see www.paulhardy.net). Creative Commons cc by-nc-sa licenced.
M:4/4
L:1/8
Q:1/4=160
K:G
D2|"G" G2GA B2AG|"D" A2AB c2BA|"G" G2GB d2BG|"D" AF D2 AFD2|
"G" G2GA B2AG|"D" A2AB c2BA|"G" BdBG "D7"AcAF|"G" G2G2G2:|
|:G2|"D" d2dc BcdB|"C" c2cB ABcA|"G" B2BA GABG|"D" A2F2D4|
"D" d2dc BcdB|"C" c2cB ABcA|"G" BdBG "D7"AcAF|"G" G2G2G2:|

